X: 15604
T: Goat In The Cold, The
R: waltz
M: 3/4
K: Amajor
V:1
|:"A"e2 A "E7"B>AG|"A"A3 E3|"D" F>Ad f>ed|"A"e3 c3|
V:2
|:e2 C E3|E3 C3|D>FA A3|c3 A3|
V:1
"Bm"F>Bd f>ed|"A"E>Ac e>dc|"E7"D>GB d>cB|"A"A6:|
V:2
D>FB d>cB|C2A c>BA|B,>EG B>A G|[C6E6]:|
V:1
|:"A"e2 a "E7"b>ag|"A"a3 e3|"D"f>Aa a>gf|"A"e3 c3|
V:2
|:A2 c e3|e3 c3|d>Ff f>ed|c3 A3|
V:1
"E7"D>GB d>cB|"A"C>EA c>BA|"E7"B,>EG B>AG|"A"A6:|
V:2
B,>EG F>ED|A,2 C E>DC|G,2 E G2 E|[C6E6]:|

